;FLAVOR:Marlin
;TIME:1864
;Filament used: 1.22168m
;Layer height: 0.2
;MINX:73.133
;MINY:67.79
;MINZ:0.2
;MAXX:135.647
;MAXY:153.836
;MAXZ:5
;Generated with Cura_SteamEngine 5.4.0
M82 ;absolute extrusion mode
; Ender 3 S1 Pro Start G-code
; M413 S0 ; Disable power loss recovery
G92 E0 ; Reset Extruder

; Prep surfaces before auto home for better accuracy
M140 S60
M104 S200

G28 O ; Home all untrusted axes
G1 Z10.0 F3000 ; Move Z Axis up little to prevent scratching of Heat Bed
G1 X0 Y0

M190 S60
M109 S200

G1 X0.1 Y20 Z0.3 F5000.0 ; Move to start position
G1 X0.1 Y200.0 Z0.3 F1500.0 E15 ; Draw the first line
G1 X0.4 Y200.0 Z0.3 F5000.0 ; Move to side a little
G1 X0.4 Y20 Z0.3 F1500.0 E30 ; Draw the second line
G92 E0 ; Reset Extruder
G1 Z2.0 F3000 ; Move Z Axis up little to prevent scratching of Heat Bed
G1 X5 Y20 Z0.3 F5000.0 ; Move over to prevent blob squish

G92 E0
G92 E0
G1 F2400 E-0.8
;LAYER_COUNT:25
;LAYER:0
M107
M204 S2000
G0 F7500 X88.375 Y75.317 Z0.2
M204 S500
;TYPE:SKIRT
G1 F2400 E0
G1 F1500 X88.788 Y74.837 E0.02106
G1 X89.237 Y74.348 E0.04314
G1 X89.745 Y73.831 E0.06725
G1 X90.284 Y73.318 E0.092
G1 X90.8 Y72.857 E0.11501
G1 X91.253 Y72.478 E0.13466
G1 X91.757 Y72.083 E0.15595
G1 X92.297 Y71.685 E0.17827
G1 X92.843 Y71.308 E0.20033
G1 X93.345 Y70.984 E0.22021
G1 X93.954 Y70.619 E0.24382
G1 X94.668 Y70.223 E0.27098
G1 X95.259 Y69.92 E0.29307
G1 X95.717 Y69.704 E0.30991
G1 X96.308 Y69.445 E0.33137
G1 X97.005 Y69.165 E0.35635
G1 X97.653 Y68.93 E0.37928
G1 X98.291 Y68.721 E0.40161
G1 X98.929 Y68.535 E0.42371
G1 X99.52 Y68.382 E0.44402
G1 X100.191 Y68.23 E0.4669
G1 X100.852 Y68.104 E0.48928
G1 X101.495 Y68.001 E0.51094
G1 X102.136 Y67.92 E0.53243
G1 X102.805 Y67.856 E0.55478
G1 X103.484 Y67.812 E0.57741
G1 X104.147 Y67.791 E0.59948
G1 X104.81 Y67.79 E0.62153
G1 X105.52 Y67.814 E0.64515
G1 X106.184 Y67.858 E0.66729
G1 X106.836 Y67.92 E0.68907
G1 X107.47 Y68.002 E0.71033
G1 X108.098 Y68.102 E0.73148
G1 X108.732 Y68.223 E0.75295
G1 X109.45 Y68.385 E0.77743
G1 X110.155 Y68.57 E0.80168
G1 X110.777 Y68.755 E0.82326
G1 X111.343 Y68.941 E0.84307
G1 X111.954 Y69.165 E0.86472
G1 X113.11 Y69.628 E0.90614
G1 X115.522 Y70.553 E0.99206
G1 X117.902 Y71.389 E1.07596
G1 X120.341 Y72.168 E1.16112
G1 X123.189 Y72.99 E1.25971
G1 X124.111 Y73.304 E1.2921
G1 X125.002 Y73.699 E1.32452
G1 X125.853 Y74.17 E1.35687
G1 X126.66 Y74.715 E1.38926
G1 X127.417 Y75.33 E1.4217
G1 X128.114 Y76.008 E1.45404
G1 X128.728 Y76.718 E1.48526
G1 X129.318 Y77.536 E1.51881
G1 X129.797 Y78.344 E1.55005
G1 X130.233 Y79.255 E1.58364
G1 X130.573 Y80.167 E1.61601
G1 X130.823 Y81.071 E1.64721
G1 X131.006 Y82.075 E1.68115
G1 X131.104 Y83.32 E1.72269
G1 X131.126 Y84.39 E1.75828
G1 X131.218 Y86.997 E1.84505
G1 X131.376 Y89.508 E1.92873
G1 X131.604 Y91.992 E2.01169
G1 X131.906 Y94.49 E2.09538
G1 X132.28 Y97.006 E2.17998
G1 X132.717 Y99.457 E2.26279
G1 X133.234 Y101.944 E2.34728
G1 X133.801 Y104.34 E2.42917
G1 X134.886 Y108.277 E2.565
G1 X135.055 Y108.923 E2.5872
G1 X135.196 Y109.541 E2.60829
G1 X135.324 Y110.202 E2.63068
G1 X135.432 Y110.872 E2.65325
G1 X135.523 Y111.604 E2.67779
G1 X135.593 Y112.371 E2.7034
G1 X135.632 Y112.998 E2.7243
G1 X135.646 Y113.46 E2.73967
G1 X135.647 Y114.109 E2.76126
G1 X135.623 Y114.888 E2.78718
G1 X135.578 Y115.594 E2.81071
G1 X135.518 Y116.223 E2.83172
G1 X135.428 Y116.911 E2.8548
G1 X135.312 Y117.621 E2.87873
G1 X135.197 Y118.214 E2.89882
G1 X135.081 Y118.738 E2.91667
G1 X134.911 Y119.4 E2.9394
G1 X134.689 Y120.162 E2.9658
G1 X133.897 Y122.721 E3.0549
G1 X133.219 Y125.149 E3.13874
G1 X132.615 Y127.576 E3.22193
G1 X132.069 Y130.061 E3.30655
G1 X131.598 Y132.54 E3.39048
G1 X131.204 Y134.997 E3.47324
G1 X130.869 Y137.539 E3.55852
G1 X130.683 Y139.26 E3.61609
G1 X130.526 Y140.258 E3.64969
G1 X130.291 Y141.203 E3.68208
G1 X129.974 Y142.123 E3.71445
G1 X129.576 Y143.012 E3.74684
G1 X129.139 Y143.802 E3.77687
G1 X128.552 Y144.668 E3.81167
G1 X127.935 Y145.421 E3.84405
G1 X127.253 Y146.116 E3.87643
G1 X126.513 Y146.748 E3.9088
G1 X125.719 Y147.314 E3.94123
G1 X124.878 Y147.806 E3.97364
G1 X124.025 Y148.21 E4.00503
G1 X122.816 Y148.64 E4.04771
G1 X121.001 Y149.153 E4.11044
G1 X118.576 Y149.898 E4.19482
G1 X116.215 Y150.695 E4.2777
G1 X112.719 Y152.011 E4.40194
G1 X111.767 Y152.393 E4.43606
G1 X111.11 Y152.638 E4.45938
G1 X110.478 Y152.846 E4.48151
G1 X109.704 Y153.077 E4.50838
G1 X109.043 Y153.25 E4.5311
G1 X108.47 Y153.381 E4.55065
G1 X107.797 Y153.511 E4.57345
G1 X107.074 Y153.627 E4.5978
G1 X106.36 Y153.716 E4.62173
G1 X105.684 Y153.778 E4.64431
G1 X105.077 Y153.817 E4.66454
G1 X104.529 Y153.835 E4.68278
G1 X103.844 Y153.836 E4.70556
G1 X103.089 Y153.812 E4.73069
G1 X102.408 Y153.769 E4.75338
G1 X101.804 Y153.712 E4.77356
G1 X101.114 Y153.624 E4.7967
G1 X100.402 Y153.509 E4.82068
G1 X99.766 Y153.385 E4.84224
G1 X99.217 Y153.261 E4.86096
G1 X98.569 Y153.094 E4.88321
G1 X97.862 Y152.887 E4.90771
G1 X97.198 Y152.669 E4.93096
G1 X96.581 Y152.442 E4.95283
G1 X95.974 Y152.198 E4.97458
G1 X95.38 Y151.938 E4.99615
G1 X94.791 Y151.659 E5.01783
G1 X94.244 Y151.379 E5.03827
G1 X93.648 Y151.047 E5.06096
G1 X93.027 Y150.676 E5.08502
G1 X92.452 Y150.308 E5.10772
G1 X91.965 Y149.972 E5.1274
G1 X91.42 Y149.571 E5.14991
G1 X90.855 Y149.125 E5.17385
G1 X90.322 Y148.678 E5.19698
G1 X89.844 Y148.248 E5.21837
G1 X89.367 Y147.79 E5.24036
G1 X88.889 Y147.304 E5.26304
G1 X88.414 Y146.788 E5.28636
G1 X87.978 Y146.28 E5.30863
G1 X87.574 Y145.779 E5.33003
G1 X87.213 Y145.305 E5.34985
G1 X86.828 Y144.764 E5.37194
G1 X86.444 Y144.186 E5.39502
G1 X86.089 Y143.613 E5.41744
G1 X85.765 Y143.051 E5.43901
G1 X85.448 Y142.459 E5.46135
G1 X85.178 Y141.918 E5.48146
G1 X84.911 Y141.335 E5.50278
G1 X84.49 Y140.321 E5.5393
G1 X83.982 Y138.993 E5.58659
G1 X83.015 Y136.564 E5.67355
G1 X82.036 Y134.296 E5.75571
G1 X80.974 Y132.017 E5.83934
G1 X79.624 Y129.331 E5.93932
G1 X79.134 Y128.39 E5.97461
G1 X78.716 Y127.485 E6.00776
G1 X78.333 Y126.396 E6.04616
G1 X77.811 Y124.553 E6.10987
G1 X77.078 Y122.163 E6.19302
G1 X76.267 Y119.763 E6.27727
G1 X74.959 Y116.286 E6.40083
G1 X74.599 Y115.393 E6.43286
G1 X74.273 Y114.504 E6.46435
G1 X74.072 Y113.887 E6.48593
G1 X73.899 Y113.295 E6.50645
G1 X73.741 Y112.692 E6.52718
G1 X73.593 Y112.044 E6.54929
G1 X73.455 Y111.347 E6.57292
G1 X73.342 Y110.644 E6.5966
G1 X73.253 Y109.927 E6.62063
G1 X73.191 Y109.252 E6.64318
G1 X73.152 Y108.645 E6.66341
G1 X73.134 Y108.098 E6.68161
G1 X73.133 Y107.414 E6.70436
G1 X73.157 Y106.654 E6.72965
G1 X73.202 Y105.947 E6.75321
G1 X73.262 Y105.325 E6.774
G1 X73.35 Y104.649 E6.79667
G1 X73.463 Y103.954 E6.82009
G1 X73.586 Y103.326 E6.84137
G1 X73.709 Y102.782 E6.85992
G1 X73.875 Y102.136 E6.88211
G1 X74.082 Y101.429 E6.90661
G1 X74.3 Y100.765 E6.92985
G1 X74.527 Y100.148 E6.95172
G1 X74.771 Y99.541 E6.97348
G1 X75.031 Y98.946 E6.99508
G1 X75.307 Y98.365 E7.01647
G1 X75.586 Y97.819 E7.03686
G1 X75.924 Y97.211 E7.06
G1 X76.293 Y96.592 E7.08397
G1 X76.571 Y96.152 E7.10128
G1 X78.063 Y93.913 E7.19077
G1 X79.371 Y91.825 E7.27272
G1 X80.665 Y89.624 E7.35764
G1 X81.881 Y87.415 E7.44151
G1 X83.031 Y85.177 E7.52519
G1 X84.111 Y82.921 E7.60838
G1 X84.949 Y81.023 E7.67739
G1 X85.576 Y79.658 E7.72735
G1 X85.86 Y79.084 E7.74865
G1 X86.109 Y78.619 E7.76619
G1 X86.43 Y78.063 E7.78755
G1 X86.804 Y77.46 E7.81115
G1 X87.186 Y76.884 E7.83414
G1 X87.589 Y76.317 E7.85727
G1 X87.984 Y75.797 E7.87899
G1 X88.375 Y75.317 E7.89958
M204 S2000
G0 F7500 X88.678 Y75.578
M204 S500
G1 F1500 X89.083 Y75.108 E7.92022
G1 X89.532 Y74.619 E7.9423
G1 X90.021 Y74.121 E7.96551
G1 X90.551 Y73.616 E7.98986
G1 X91.056 Y73.164 E8.0124
G1 X91.5 Y72.793 E8.03165
G1 X91.994 Y72.405 E8.05254
G1 X92.525 Y72.014 E8.07447
G1 X93.06 Y71.644 E8.09611
G1 X93.551 Y71.327 E8.11555
G1 X94.148 Y70.969 E8.1387
G1 X94.851 Y70.579 E8.16544
G1 X95.43 Y70.282 E8.18708
G1 X95.878 Y70.07 E8.20357
G1 X96.457 Y69.816 E8.2246
G1 X97.141 Y69.541 E8.24912
G1 X97.778 Y69.31 E8.27165
G1 X98.403 Y69.105 E8.29353
G1 X99.029 Y68.922 E8.31522
G1 X99.608 Y68.772 E8.33511
G1 X100.266 Y68.623 E8.35755
G1 X100.915 Y68.499 E8.37953
G1 X101.546 Y68.398 E8.40078
G1 X102.174 Y68.318 E8.42184
G1 X102.831 Y68.255 E8.44379
G1 X103.497 Y68.212 E8.46599
G1 X104.148 Y68.191 E8.48765
G1 X104.797 Y68.19 E8.50924
G1 X105.494 Y68.213 E8.53243
G1 X106.146 Y68.256 E8.55417
G1 X106.785 Y68.317 E8.57552
G1 X107.407 Y68.397 E8.59638
G1 X108.023 Y68.495 E8.61712
G1 X108.644 Y68.613 E8.63815
G1 X109.348 Y68.772 E8.66215
G1 X110.041 Y68.954 E8.68598
G1 X110.652 Y69.135 E8.70718
G1 X111.205 Y69.317 E8.72654
G1 X111.816 Y69.541 E8.74818
G1 X112.967 Y70.001 E8.78941
G1 X115.389 Y70.93 E8.87569
G1 X117.78 Y71.77 E8.95998
G1 X120.219 Y72.549 E9.04514
G1 X123.061 Y73.369 E9.14352
G1 X123.95 Y73.67 E9.17474
G1 X124.809 Y74.049 E9.20596
G1 X125.63 Y74.502 E9.23715
G1 X126.408 Y75.026 E9.26835
G1 X127.138 Y75.617 E9.29959
G1 X127.811 Y76.27 E9.33078
G1 X128.425 Y76.98 E9.362
G1 X128.974 Y77.741 E9.39321
G1 X129.436 Y78.517 E9.42325
G1 X129.858 Y79.395 E9.45565
G1 X130.187 Y80.274 E9.48686
G1 X130.437 Y81.178 E9.51806
G1 X130.607 Y82.107 E9.54947
G1 X130.704 Y83.328 E9.59021
G1 X130.726 Y84.404 E9.626
G1 X130.818 Y87.011 E9.71277
G1 X130.978 Y89.545 E9.79722
G1 X131.207 Y92.04 E9.88055
G1 X131.51 Y94.549 E9.96461
G1 X131.886 Y97.076 E10.04958
G1 X132.325 Y99.538 E10.13276
G1 X132.842 Y102.025 E10.21724
G1 X133.415 Y104.446 E10.29999
G1 X134.499 Y108.378 E10.43565
G1 X134.665 Y109.012 E10.45745
G1 X134.803 Y109.617 E10.47809
G1 X134.929 Y110.266 E10.50007
G1 X135.035 Y110.922 E10.52218
G1 X135.125 Y111.64 E10.54624
G1 X135.194 Y112.396 E10.57149
G1 X135.232 Y113.01 E10.59195
G1 X135.246 Y113.461 E10.60696
G1 X135.247 Y114.097 E10.62811
G1 X135.224 Y114.863 E10.6536
G1 X135.18 Y115.556 E10.6767
G1 X135.121 Y116.171 E10.69725
G1 X135.033 Y116.847 E10.71992
G1 X134.919 Y117.545 E10.74344
G1 X134.807 Y118.127 E10.76316
G1 X134.693 Y118.639 E10.7806
G1 X134.527 Y119.288 E10.80288
G1 X134.307 Y120.044 E10.82907
G1 X133.515 Y122.603 E10.91817
G1 X132.834 Y125.041 E11.00236
G1 X132.224 Y127.49 E11.0863
G1 X131.678 Y129.975 E11.17093
G1 X131.205 Y132.465 E11.25522
G1 X130.807 Y134.945 E11.33877
G1 X130.472 Y137.487 E11.42404
G1 X130.285 Y139.217 E11.48192
G1 X130.138 Y140.162 E11.51373
G1 X129.913 Y141.073 E11.54494
G1 X129.609 Y141.96 E11.57612
G1 X129.226 Y142.818 E11.60738
G1 X128.789 Y143.608 E11.6374
G1 X128.242 Y144.415 E11.66983
G1 X127.649 Y145.141 E11.70101
G1 X126.993 Y145.812 E11.73222
G1 X126.28 Y146.423 E11.76345
G1 X125.516 Y146.969 E11.79468
G1 X124.707 Y147.444 E11.82588
G1 X123.854 Y147.848 E11.85728
G1 X122.707 Y148.255 E11.89776
G1 X120.892 Y148.769 E11.9605
G1 X118.448 Y149.519 E12.04553
G1 X116.087 Y150.316 E12.12841
G1 X112.57 Y151.64 E12.2534
G1 X111.627 Y152.018 E12.28719
G1 X110.985 Y152.258 E12.30998
G1 X110.364 Y152.463 E12.33174
G1 X109.602 Y152.69 E12.35818
G1 X108.954 Y152.86 E12.38046
G1 X108.394 Y152.988 E12.39957
G1 X107.733 Y153.116 E12.42196
G1 X107.024 Y153.23 E12.44585
G1 X106.323 Y153.318 E12.46934
G1 X105.659 Y153.379 E12.49152
G1 X105.064 Y153.417 E12.51135
G1 X104.528 Y153.435 E12.52919
G1 X103.856 Y153.436 E12.55154
G1 X103.114 Y153.413 E12.57623
G1 X102.446 Y153.371 E12.59849
G1 X101.854 Y153.315 E12.61827
G1 X101.178 Y153.229 E12.64094
G1 X100.478 Y153.116 E12.66452
G1 X99.854 Y152.995 E12.68566
G1 X99.317 Y152.874 E12.70397
G1 X98.681 Y152.71 E12.72581
G1 X97.987 Y152.507 E12.74986
G1 X97.336 Y152.293 E12.77266
G1 X96.73 Y152.071 E12.79412
G1 X96.134 Y151.832 E12.81548
G1 X95.551 Y151.577 E12.83664
G1 X94.973 Y151.303 E12.85792
G1 X94.438 Y151.029 E12.87791
G1 X93.853 Y150.704 E12.90017
G1 X93.242 Y150.339 E12.92384
G1 X92.679 Y149.979 E12.94607
G1 X92.202 Y149.65 E12.96534
G1 X91.668 Y149.257 E12.98739
G1 X91.112 Y148.819 E13.01093
G1 X90.59 Y148.381 E13.0336
G1 X90.121 Y147.959 E13.05458
G1 X89.652 Y147.51 E13.07618
G1 X89.183 Y147.033 E13.09843
G1 X88.717 Y146.527 E13.12131
G1 X88.289 Y146.029 E13.14315
G1 X87.892 Y145.537 E13.16417
G1 X87.539 Y145.073 E13.18356
G1 X87.161 Y144.543 E13.20522
G1 X86.784 Y143.976 E13.22786
G1 X86.436 Y143.413 E13.24988
G1 X86.112 Y142.851 E13.27145
G1 X85.806 Y142.281 E13.29297
G1 X85.542 Y141.751 E13.31266
G1 X85.275 Y141.168 E13.33399
G1 X84.864 Y140.178 E13.36964
G1 X84.356 Y138.85 E13.41693
G1 X83.387 Y136.416 E13.50407
G1 X82.399 Y134.127 E13.58699
G1 X81.337 Y131.848 E13.67062
G1 X79.979 Y129.146 E13.7712
G1 X79.497 Y128.222 E13.80586
G1 X79.093 Y127.352 E13.83776
G1 X78.717 Y126.284 E13.87542
G1 X78.482 Y125.477 E13.90338
G1 X78.196 Y124.446 E13.93896
G1 X77.457 Y122.035 E14.02284
G1 X76.646 Y119.635 E14.1071
G1 X75.333 Y116.145 E14.23112
G1 X74.975 Y115.255 E14.26302
G1 X74.649 Y114.366 E14.29452
G1 X74.456 Y113.774 E14.31523
G1 X74.286 Y113.194 E14.33533
G1 X74.131 Y112.603 E14.35565
G1 X73.985 Y111.967 E14.37735
G1 X73.85 Y111.283 E14.40054
G1 X73.739 Y110.594 E14.42375
G1 X73.651 Y109.89 E14.44735
G1 X73.59 Y109.226 E14.46953
G1 X73.552 Y108.632 E14.48933
G1 X73.534 Y108.097 E14.50713
G1 X73.533 Y107.426 E14.52945
G1 X73.556 Y106.679 E14.55431
G1 X73.6 Y105.986 E14.5774
G1 X73.659 Y105.376 E14.59778
G1 X73.745 Y104.713 E14.62002
G1 X73.856 Y104.03 E14.64304
G1 X73.976 Y103.414 E14.66391
G1 X74.096 Y102.882 E14.68205
G1 X74.259 Y102.248 E14.70382
G1 X74.462 Y101.554 E14.72787
G1 X74.676 Y100.903 E14.75066
G1 X74.898 Y100.297 E14.77213
G1 X75.137 Y99.701 E14.79349
G1 X75.392 Y99.118 E14.81465
G1 X75.663 Y98.547 E14.83567
G1 X75.936 Y98.013 E14.85562
G1 X76.267 Y97.416 E14.87832
G1 X76.631 Y96.806 E14.90195
G1 X76.904 Y96.374 E14.91895
G1 X78.396 Y94.135 E15.00844
G1 X79.716 Y92.028 E15.09113
G1 X81.01 Y89.827 E15.17605
G1 X82.237 Y87.598 E15.26068
G1 X83.387 Y85.36 E15.34437
G1 X84.472 Y83.094 E15.42793
G1 X85.312 Y81.19 E15.49714
G1 X85.935 Y79.835 E15.54675
G1 X86.213 Y79.273 E15.5676
G1 X86.456 Y78.819 E15.58473
G1 X86.77 Y78.274 E15.60565
G1 X87.137 Y77.681 E15.62884
G1 X87.512 Y77.116 E15.6514
G1 X87.908 Y76.559 E15.67413
G1 X88.303 Y76.039 E15.69585
G1 X88.678 Y75.578 E15.71561
M204 S2000
G0 F7500 X88.981 Y75.839
M204 S500
G1 F1500 X89.378 Y75.378 E15.73585
G1 X89.817 Y74.899 E15.75746
G1 X90.297 Y74.41 E15.78025
G1 X90.817 Y73.914 E15.80415
G1 X91.313 Y73.471 E15.82627
G1 X91.747 Y73.108 E15.84509
G1 X92.232 Y72.727 E15.8656
G1 X92.752 Y72.343 E15.8871
G1 X93.277 Y71.98 E15.90833
G1 X93.757 Y71.67 E15.92733
G1 X94.342 Y71.319 E15.95003
G1 X95.034 Y70.935 E15.97635
G1 X95.613 Y70.638 E15.99799
G1 X96.039 Y70.436 E16.01367
G1 X96.606 Y70.187 E16.03427
G1 X97.278 Y69.917 E16.05836
G1 X97.903 Y69.69 E16.08047
G1 X98.516 Y69.489 E16.10193
G1 X99.13 Y69.309 E16.12321
G1 X99.696 Y69.162 E16.14266
G1 X100.341 Y69.016 E16.16466
G1 X100.978 Y68.894 E16.18623
G1 X101.597 Y68.795 E16.20708
G1 X102.212 Y68.716 E16.2277
G1 X102.857 Y68.654 E16.24925
G1 X103.51 Y68.612 E16.27102
G1 X104.149 Y68.591 E16.29228
G1 X104.784 Y68.59 E16.3134
G1 X105.468 Y68.612 E16.33616
G1 X106.108 Y68.654 E16.35749
G1 X106.734 Y68.714 E16.37841
G1 X107.344 Y68.792 E16.39886
G1 X107.949 Y68.888 E16.41924
G1 X108.556 Y69.003 E16.43979
G1 X109.246 Y69.159 E16.46332
G1 X109.928 Y69.338 E16.48677
G1 X110.527 Y69.515 E16.50754
G1 X111.068 Y69.693 E16.52648
G1 X111.668 Y69.912 E16.54773
G1 X112.824 Y70.374 E16.58913
G1 X115.256 Y71.307 E16.67577
G1 X117.658 Y72.151 E16.76045
G1 X120.097 Y72.93 E16.84561
G1 X122.933 Y73.748 E16.94378
G1 X123.789 Y74.036 E16.97382
G1 X124.616 Y74.399 E17.00386
G1 X125.407 Y74.834 E17.03388
G1 X126.157 Y75.337 E17.06392
G1 X126.86 Y75.904 E17.09396
G1 X127.509 Y76.532 E17.12399
G1 X128.101 Y77.214 E17.15403
G1 X128.63 Y77.946 E17.18407
G1 X129.092 Y78.722 E17.21411
G1 X129.484 Y79.536 E17.24416
G1 X129.802 Y80.381 E17.27419
G1 X130.044 Y81.251 E17.30422
G1 X130.208 Y82.139 E17.33426
G1 X130.304 Y83.336 E17.3742
G1 X130.326 Y84.418 E17.41019
G1 X130.418 Y87.025 E17.49695
G1 X130.58 Y89.582 E17.58217
G1 X130.81 Y92.088 E17.66587
G1 X131.114 Y94.608 E17.75029
G1 X131.492 Y97.146 E17.83564
G1 X131.933 Y99.619 E17.91919
G1 X132.45 Y102.106 E18.00368
G1 X133.029 Y104.552 E18.08728
G1 X134.112 Y108.48 E18.2228
